public/images/gplus.svg

<svg width="18" height="18" viewBox="0 0 18 18" xmlns="http://www.w3.org/2000/svg"><title>Shape</title><path d="M.99 4.59c0 1.493.498 2.57 1.48 3.204.807.52 1.74.598 2.227.598.118 0 .213-.006.28-.01 0 0-.155 1.004.59 1.996H5.53c-1.29 0-5.493.27-5.493 3.727C.04 17.62 3.9 17.8 4.674 17.8c.06 0 .097-.002.097-.002.008 0 .063.002.158.002.497 0 1.782-.062 2.975-.643 1.548-.75 2.333-2.06 2.333-3.885 0-1.764-1.196-2.814-2.07-3.582-.532-.47-.993-.873-.993-1.266 0-.4.337-.7.762-1.082.69-.615 1.34-1.492 1.34-3.15 0-1.457-.19-2.436-1.355-3.057.12-.062.55-.107.763-.137.63-.086 1.554-.184 1.554-.7V.2h-4.6C5.594.202.99.372.99 4.59zM8.412 13.6c.088 1.406-1.115 2.443-2.922 2.574-1.834.135-3.344-.69-3.432-2.096-.043-.676.254-1.336.835-1.863.59-.533 1.398-.863 2.278-.928.105-.007.208-.013.31-.013 1.7 0 2.85 1 2.933 2.325zm-1.2-9.976c.45 1.588-.23 3.246-1.317 3.553-.125.034-.253.05-.384.05-.994 0-1.98-1.005-2.345-2.392-.204-.776-.187-1.458.047-2.112.23-.645.643-1.078 1.163-1.225.125-.034.254-.052.385-.052 1.2 0 1.972.498 2.45 2.178zM15 7V4h-2v3h-3v2h3v3h2V9h3V7h-3z" fill="#504353" fill-rule="evenodd"/></svg>

<?xml version="1.0" encoding="UTF-8" standalone="no"?>
<svg width="25px" height="25px" viewBox="0 0 25 25" version="1.1" xmlns="http://www.w3.org/2000/svg" xmlns:xlink="http://www.w3.org/1999/xlink" xmlns:sketch="http://www.bohemiancoding.com/sketch/ns">
    <!-- Generator: Sketch 3.4.2 (15855) - http://www.bohemiancoding.com/sketch -->
    <title>gplus</title>
    <desc>Created with Sketch.</desc>
    <defs></defs>
    <g id="Page-1" stroke="none" stroke-width="1" fill="none" fill-rule="evenodd" sketch:type="MSPage">
        <g id="gplus" sketch:type="MSArtboardGroup" fill="#504353">
            <g sketch:type="MSLayerGroup" transform="translate(4.000000, 4.000000)" id="Shape">
                <g sketch:type="MSShapeGroup">
                    <path d="M0.99,4.59 C0.99,6.083 1.488,7.16 2.47,7.794 C3.277,8.314 4.21,8.392 4.697,8.392 C4.815,8.392 4.91,8.386 4.977,8.382 C4.977,8.382 4.822,9.386 5.567,10.378 L5.53,10.378 C4.24,10.378 0.037,10.648 0.037,14.105 C0.04,17.62 3.9,17.8 4.674,17.8 C4.734,17.8 4.771,17.798 4.771,17.798 C4.779,17.798 4.834,17.8 4.929,17.8 C5.426,17.8 6.711,17.738 7.904,17.157 C9.452,16.407 10.237,15.097 10.237,13.272 C10.237,11.508 9.041,10.458 8.167,9.69 C7.635,9.22 7.174,8.817 7.174,8.424 C7.174,8.024 7.511,7.724 7.936,7.342 C8.626,6.727 9.276,5.85 9.276,4.192 C9.276,2.735 9.086,1.756 7.921,1.135 C8.041,1.073 8.471,1.028 8.684,0.998 C9.314,0.912 10.238,0.814 10.238,0.298 L10.238,0.2 L5.638,0.2 C5.594,0.202 0.99,0.372 0.99,4.59 L0.99,4.59 Z M8.412,13.6 C8.5,15.006 7.297,16.043 5.49,16.174 C3.656,16.309 2.146,15.484 2.058,14.078 C2.015,13.402 2.312,12.742 2.893,12.215 C3.483,11.682 4.291,11.352 5.171,11.287 C5.276,11.28 5.379,11.274 5.481,11.274 C7.181,11.274 8.331,12.274 8.414,13.599 L8.412,13.6 Z M7.212,3.624 C7.662,5.212 6.982,6.87 5.895,7.177 C5.77,7.211 5.642,7.227 5.511,7.227 C4.517,7.227 3.531,6.222 3.166,4.835 C2.962,4.059 2.979,3.377 3.213,2.723 C3.443,2.078 3.856,1.645 4.376,1.498 C4.501,1.464 4.63,1.446 4.761,1.446 C5.961,1.446 6.733,1.944 7.211,3.624 L7.212,3.624 Z M15,7 L15,4 L13,4 L13,7 L10,7 L10,9 L13,9 L13,12 L15,12 L15,9 L18,9 L18,7 L15,7 L15,7 Z"></path>
                </g>
            </g>
        </g>
    </g>
</svg>
